assets/img/icon-html.svg

<svg width="62" height="62" viewBox="0 0 62 62" fill="none" xmlns="http://www.w3.org/2000/svg">
<g clip-path="url(#clip0_67_1342)">
<path d="M60.7903 42.4354H1.20973C0.541652 42.4354 0 42.977 0 43.6451V60.3546C0 61.0226 0.541652 61.5643 1.20973 61.5643H60.7903C61.4583 61.5643 62 61.0226 62 60.3546V43.6451C62 42.977 61.4583 42.4354 60.7903 42.4354ZM47.3392 44.8549H52.4846V48.0054H47.3392V44.8549ZM55.2694 50.4245V53.5751H52.1189V50.4245H55.2694ZM49.6997 50.4245V53.5751H44.5543V50.4245H49.6997ZM39.7743 44.8549H44.9197V48.0054H39.7743V44.8549ZM42.1348 50.4245V53.5751H36.9894V50.4245H42.1348ZM32.2097 44.8549H37.355V48.0054H32.2097V44.8549ZM34.5702 50.4246V53.5753H29.4248V50.4246H34.5702ZM24.645 44.8549H29.7904V48.0054H24.645V44.8549ZM27.0055 50.4245V53.5751H21.8601V50.4245H27.0055ZM17.0802 44.8549H22.2255V48.0054H17.0802V44.8549ZM19.4405 50.4245V53.5751H14.2952V50.4245H19.4405ZM9.51543 44.8549H14.6608V48.0054H9.51543V44.8549ZM11.8759 50.4246V53.5753H6.73039V50.4246H11.8759ZM2.41933 44.8547H7.09609V48.0052H2.41933V44.8547ZM2.41933 50.4245H4.31106V53.5751H2.41933V50.4245ZM7.09609 59.145H2.41933V55.9945H7.09609V59.145ZM14.6608 59.145H9.51543V55.9945H14.6608V59.145ZM22.2257 59.145H17.0803V55.9945H22.2257V59.145ZM37.355 59.145H24.645V55.9945H37.355V59.145ZM44.9198 59.145H39.7745V55.9945H44.9198V59.145ZM52.4846 59.145H47.3392V55.9945H52.4846V59.145ZM59.5807 59.145H54.9039V55.9945H59.5807V59.145ZM57.6887 53.5753V50.4246H59.5804V53.5753H57.6887ZM59.5807 48.0053H54.9039V44.8548H59.5807V48.0053Z" fill="black"/>
<path d="M24.6622 0.435699H1.20973C0.541652 0.435699 0 0.977352 0 1.64543V38.9966C0 39.6646 0.541652 40.2063 1.20973 40.2063H24.6623C25.3304 40.2063 25.872 39.6646 25.872 38.9966V1.64543C25.8719 0.977352 25.3303 0.435699 24.6622 0.435699ZM23.4526 37.7868H2.41933V2.85503H23.4526V37.7868Z" fill="black"/>
<path d="M60.7903 0.435699H30.2014C29.5333 0.435699 28.9917 0.977352 28.9917 1.64543V38.9966C28.9917 39.6646 29.5333 40.2063 30.2014 40.2063H60.7902C61.4582 40.2063 61.9999 39.6646 61.9999 38.9966V1.64543C62 0.977352 61.4584 0.435699 60.7903 0.435699ZM59.5806 37.7868H31.411V8.01629H59.5806V37.7868ZM59.5807 5.59696H31.411V2.85503H59.5807V5.59696Z" fill="black"/>
<path d="M19.5488 6.51459H6.32304C5.65496 6.51459 5.11331 7.05624 5.11331 7.72431C5.11331 8.39239 5.65496 8.93404 6.32304 8.93404H19.5488C20.2169 8.93404 20.7585 8.39239 20.7585 7.72431C20.7584 7.05612 20.2167 6.51459 19.5488 6.51459Z" fill="black"/>
<path d="M12.9435 11.5533H6.32304C5.65496 11.5533 5.11331 12.095 5.11331 12.763C5.11331 13.4311 5.65496 13.9728 6.32304 13.9728H12.9435C13.6116 13.9728 14.1532 13.4311 14.1532 12.763C14.1531 12.095 13.6116 11.5533 12.9435 11.5533Z" fill="black"/>
<path d="M19.5488 16.5919H6.32304C5.65496 16.5919 5.11331 17.1335 5.11331 17.8016C5.11331 18.4697 5.65496 19.0113 6.32304 19.0113H19.5488C20.2169 19.0113 20.7585 18.4697 20.7585 17.8016C20.7584 17.1334 20.2167 16.5919 19.5488 16.5919Z" fill="black"/>
<path d="M12.9435 21.6307H6.32304C5.65496 21.6307 5.11331 22.1724 5.11331 22.8405C5.11331 23.5085 5.65496 24.0502 6.32304 24.0502H12.9435C13.6116 24.0502 14.1532 23.5085 14.1532 22.8405C14.1531 22.1723 13.6116 21.6307 12.9435 21.6307Z" fill="black"/>
<path d="M19.5488 26.6692H6.32304C5.65496 26.6692 5.11331 27.2108 5.11331 27.8789C5.11331 28.547 5.65496 29.0886 6.32304 29.0886H19.5488C20.2169 29.0886 20.7585 28.547 20.7585 27.8789C20.7584 27.2108 20.2167 26.6692 19.5488 26.6692Z" fill="black"/>
<path d="M12.9435 31.708H6.32304C5.65496 31.708 5.11331 32.2497 5.11331 32.9178C5.11331 33.5858 5.65496 34.1275 6.32304 34.1275H12.9435C13.6116 34.1275 14.1532 33.5858 14.1532 32.9178C14.1531 32.2497 13.6116 31.708 12.9435 31.708Z" fill="black"/>
<path d="M36.7642 22.337L40.5848 18.5163C41.0574 18.0441 41.0574 17.2782 40.5848 16.8056C40.1124 16.3333 39.3464 16.3333 38.8742 16.8056L34.1983 21.4816C33.7259 21.9539 33.7259 22.72 34.1983 23.1923L38.8742 27.8682C39.1104 28.1043 39.42 28.2225 39.7295 28.2225C40.039 28.2225 40.3487 28.1044 40.5848 27.8682C41.0572 27.3958 41.0572 26.6297 40.5848 26.1575L36.7642 22.337Z" fill="black"/>
<path d="M56.7934 21.4817L52.1175 16.8058C51.6451 16.3334 50.8791 16.3334 50.4068 16.8058C49.9345 17.2782 49.9345 18.0442 50.4068 18.5165L54.2275 22.3371L50.4068 26.1577C49.9345 26.6301 49.9345 27.3961 50.4068 27.8684C50.643 28.1045 50.9526 28.2227 51.2621 28.2227C51.5716 28.2227 51.8813 28.1047 52.1174 27.8684L56.7933 23.1925C57.2658 22.7199 57.2658 21.9539 56.7934 21.4817Z" fill="black"/>
<path d="M47.2284 13.422C46.5803 13.2589 45.9232 13.6527 45.7605 14.3006L42.8849 25.7519C42.7221 26.4 43.1156 27.0571 43.7634 27.2198C43.8622 27.2446 43.9615 27.2566 44.0589 27.2566C44.6003 27.2566 45.0934 26.8903 45.2313 26.3413L48.1069 14.8899C48.2697 14.242 47.8762 13.5848 47.2284 13.422Z" fill="black"/>
</g>
<defs>
<clipPath id="clip0_67_1342">
<rect width="62" height="62" fill="white"/>
</clipPath>
</defs>
</svg>

<?xml version="1.0" encoding="utf-8"?>
<!-- Generator: Adobe Illustrator 24.3.0, SVG Export Plug-In . SVG Version: 6.00 Build 0)  -->
<svg version="1.1" id="Capa_1" xmlns="http://www.w3.org/2000/svg" xmlns:xlink="http://www.w3.org/1999/xlink" x="0px" y="0px"
	 viewBox="0 0 62 62" style="enable-background:new 0 0 62 62;" xml:space="preserve">
<style type="text/css">
	.st0{clip-path:url(#SVGID_2_);}
	.st1{fill:#3A3A3A;}
</style>
<g>
	<defs>
		<rect id="SVGID_1_" width="62" height="62"/>
	</defs>
	<clipPath id="SVGID_2_">
		<use xlink:href="#SVGID_1_"  style="overflow:visible;"/>
	</clipPath>
	<g class="st0">
		<path class="st1" d="M60.8,42.4H1.2C0.5,42.4,0,43,0,43.6v16.7c0,0.7,0.5,1.2,1.2,1.2h59.6c0.7,0,1.2-0.5,1.2-1.2V43.6
			C62,43,61.5,42.4,60.8,42.4z M47.3,44.9h5.1V48h-5.1V44.9z M55.3,50.4v3.2h-3.2v-3.2H55.3z M49.7,50.4v3.2h-5.1v-3.2H49.7z
			 M39.8,44.9h5.1V48h-5.1V44.9z M42.1,50.4v3.2H37v-3.2H42.1z M32.2,44.9h5.1V48h-5.1V44.9z M34.6,50.4v3.2h-5.1v-3.2H34.6z
			 M24.6,44.9h5.1V48h-5.1V44.9z M27,50.4v3.2h-5.1v-3.2H27z M17.1,44.9h5.1V48h-5.1V44.9z M19.4,50.4v3.2h-5.1v-3.2H19.4z
			 M9.5,44.9h5.1V48H9.5V44.9z M11.9,50.4v3.2H6.7v-3.2H11.9z M2.4,44.9h4.7V48H2.4V44.9z M2.4,50.4h1.9v3.2H2.4V50.4z M7.1,59.1
			H2.4V56h4.7V59.1z M14.7,59.1H9.5V56h5.1V59.1z M22.2,59.1h-5.1V56h5.1V59.1z M37.4,59.1H24.6V56h12.7V59.1z M44.9,59.1h-5.1V56
			h5.1V59.1z M52.5,59.1h-5.1V56h5.1V59.1z M59.6,59.1h-4.7V56h4.7V59.1z M57.7,53.6v-3.2h1.9v3.2H57.7z M59.6,48h-4.7v-3.2h4.7V48z
			"/>
		<path class="st1" d="M24.7,0.4H1.2C0.5,0.4,0,1,0,1.6V39c0,0.7,0.5,1.2,1.2,1.2h23.5c0.7,0,1.2-0.5,1.2-1.2V1.6
			C25.9,1,25.3,0.4,24.7,0.4z M23.5,37.8h-21V2.9h21V37.8z"/>
		<path class="st1" d="M60.8,0.4H30.2C29.5,0.4,29,1,29,1.6V39c0,0.7,0.5,1.2,1.2,1.2h30.6c0.7,0,1.2-0.5,1.2-1.2V1.6
			C62,1,61.5,0.4,60.8,0.4z M59.6,37.8H31.4V8h28.2V37.8z M59.6,5.6H31.4V2.9h28.2V5.6z"/>
		<path class="st1" d="M19.5,6.5H6.3c-0.7,0-1.2,0.5-1.2,1.2c0,0.7,0.5,1.2,1.2,1.2h13.2c0.7,0,1.2-0.5,1.2-1.2
			C20.8,7.1,20.2,6.5,19.5,6.5z"/>
		<path class="st1" d="M12.9,11.6H6.3c-0.7,0-1.2,0.5-1.2,1.2c0,0.7,0.5,1.2,1.2,1.2h6.6c0.7,0,1.2-0.5,1.2-1.2
			C14.2,12.1,13.6,11.6,12.9,11.6z"/>
		<path class="st1" d="M19.5,16.6H6.3c-0.7,0-1.2,0.5-1.2,1.2S5.7,19,6.3,19h13.2c0.7,0,1.2-0.5,1.2-1.2
			C20.8,17.1,20.2,16.6,19.5,16.6z"/>
		<path class="st1" d="M12.9,21.6H6.3c-0.7,0-1.2,0.5-1.2,1.2c0,0.7,0.5,1.2,1.2,1.2h6.6c0.7,0,1.2-0.5,1.2-1.2
			C14.2,22.2,13.6,21.6,12.9,21.6z"/>
		<path class="st1" d="M19.5,26.7H6.3c-0.7,0-1.2,0.5-1.2,1.2s0.5,1.2,1.2,1.2h13.2c0.7,0,1.2-0.5,1.2-1.2
			C20.8,27.2,20.2,26.7,19.5,26.7z"/>
		<path class="st1" d="M12.9,31.7H6.3c-0.7,0-1.2,0.5-1.2,1.2c0,0.7,0.5,1.2,1.2,1.2h6.6c0.7,0,1.2-0.5,1.2-1.2
			C14.2,32.2,13.6,31.7,12.9,31.7z"/>
		<path class="st1" d="M36.8,22.3l3.8-3.8c0.5-0.5,0.5-1.2,0-1.7c-0.5-0.5-1.2-0.5-1.7,0l-4.7,4.7c-0.5,0.5-0.5,1.2,0,1.7l4.7,4.7
			c0.2,0.2,0.5,0.4,0.9,0.4s0.6-0.1,0.9-0.4c0.5-0.5,0.5-1.2,0-1.7L36.8,22.3z"/>
		<path class="st1" d="M56.8,21.5l-4.7-4.7c-0.5-0.5-1.2-0.5-1.7,0c-0.5,0.5-0.5,1.2,0,1.7l3.8,3.8l-3.8,3.8c-0.5,0.5-0.5,1.2,0,1.7
			c0.2,0.2,0.5,0.4,0.9,0.4s0.6-0.1,0.9-0.4l4.7-4.7C57.3,22.7,57.3,22,56.8,21.5z"/>
		<path class="st1" d="M47.2,13.4c-0.6-0.2-1.3,0.2-1.5,0.9l-2.9,11.5c-0.2,0.6,0.2,1.3,0.9,1.5c0.1,0,0.2,0,0.3,0
			c0.5,0,1-0.4,1.2-0.9l2.9-11.5C48.3,14.2,47.9,13.6,47.2,13.4z"/>
	</g>
</g>
</svg>
